X:106
T:Lark on the Strand, The
R:jig
H:See also "The Stolen Purse", #205
D:Chieftains 1
D:Paddy Keenan
Z:id:hn-jig-106
M:6/8
K:G
ABG AGA|BGE ~G3|ABA GBd|egd edB|ABG AGA|BGE ~G3|GBA G2B|dBG BdB:|
|:GBd ~g3|gba ~g3|GBd ~g3|egd edB|GBd ~g3|gba ~g3|abg age|egd edB:|

